img/aboutus/aboutus_block_two_114.svg

<svg width="114" height="99" viewBox="0 0 114 99" fill="none" xmlns="http://www.w3.org/2000/svg">
<circle cx="35.9999" cy="63" r="36" fill="#FF9900"/>
<g clip-path="url(#clip0)">
<path fill-rule="evenodd" clip-rule="evenodd" d="M60.6783 9.29406C60.8397 9.01291 61.1975 8.91642 61.4774 9.07856L95.707 28.9031C95.9869 29.0652 96.083 29.4245 95.9216 29.7057C95.7601 29.9868 95.4023 30.0833 95.1224 29.9212L60.8928 10.0967C60.6129 9.93457 60.5168 9.57522 60.6783 9.29406Z" fill="black"/>
<path fill-rule="evenodd" clip-rule="evenodd" d="M74.1011 1.12491C75.3778 0.387964 76.8259 0 78.2999 0C79.7739 0 81.222 0.387964 82.4987 1.12491C82.4991 1.12515 82.4995 1.12538 82.4999 1.12561L109.8 16.7288C111.076 17.4654 112.135 18.5247 112.872 19.8003C113.61 21.0758 113.998 22.5229 114 23.9962V55.2038C113.998 56.6771 113.61 58.1241 112.872 59.3997C112.135 60.6753 111.076 61.7346 109.8 62.4712L109.798 62.4726L82.4999 78.0744C82.4997 78.0745 82.4995 78.0746 82.4992 78.0748C81.2224 78.8119 79.7742 79.2 78.2999 79.2C76.8257 79.2 75.3774 78.8119 74.1006 78.0748C74.1004 78.0746 74.1001 78.0745 74.0999 78.0744L46.8022 62.4726L46.7999 62.4712C45.5242 61.7346 44.4646 60.6753 43.7275 59.3997C42.9903 58.1241 42.6014 56.6771 42.5999 55.2038V23.9962C42.6014 22.5229 42.9903 21.0758 43.7275 19.8003C44.4646 18.5247 45.5242 17.4654 46.7999 16.7288L46.8022 16.7274L74.0999 1.12561C74.1003 1.12538 74.1007 1.12515 74.1011 1.12491ZM78.2999 1.20024C77.036 1.20024 75.7944 1.53299 74.6999 2.16505L74.6976 2.16638L47.3999 17.7682C47.3995 17.7684 47.3991 17.7687 47.3987 17.7689C46.3058 18.4003 45.398 19.308 44.7664 20.4009C44.1346 21.4942 43.8013 22.7344 43.7999 23.9972V55.2028C43.8013 56.4656 44.1346 57.7058 44.7664 58.7991C45.398 59.892 46.3057 60.7996 47.3985 61.431C47.399 61.4313 47.3994 61.4315 47.3999 61.4318L74.6999 77.0349C75.7944 77.667 77.036 77.9998 78.2999 77.9998C79.5638 77.9998 80.8054 77.667 81.8999 77.0349L81.9022 77.0336L109.2 61.4318C109.2 61.4315 109.201 61.4313 109.201 61.431C110.294 60.7996 111.202 59.892 111.833 58.7991C112.465 57.7057 112.799 56.4654 112.8 55.2025V23.9975C112.799 22.7346 112.465 21.4943 111.833 20.4009C111.202 19.308 110.294 18.4003 109.201 17.7689C109.201 17.7687 109.2 17.7684 109.2 17.7682L81.9022 2.16638L81.8999 2.16505C80.8054 1.53299 79.5638 1.20024 78.2999 1.20024Z" fill="black"/>
<path fill-rule="evenodd" clip-rule="evenodd" d="M43.8796 20.0925C44.0433 19.8125 44.4056 19.7168 44.6888 19.8787L77.9999 38.9374L111.311 19.8787C111.594 19.7168 111.956 19.8125 112.12 20.0925C112.284 20.3725 112.187 20.7309 111.904 20.8929L78.2964 40.1212C78.113 40.2262 77.8868 40.2262 77.7033 40.1212L44.0957 20.8929C43.8125 20.7309 43.7158 20.3725 43.8796 20.0925Z" fill="black"/>
<path fill-rule="evenodd" clip-rule="evenodd" d="M77.9998 39C78.3312 39 78.5998 39.2626 78.5998 39.5865V78.0135C78.5998 78.3374 78.3312 78.6 77.9998 78.6C77.6685 78.6 77.3998 78.3374 77.3998 78.0135V39.5865C77.3998 39.2626 77.6685 39 77.9998 39Z" fill="black"/>
</g>
<defs>
<clipPath id="clip0">
<rect width="71.4" height="79.2" fill="white" transform="translate(42.5999)"/>
</clipPath>
</defs>
</svg>

<svg width="114" height="99" fill="none" xmlns="http://www.w3.org/2000/svg"><circle cx="36" cy="63" r="36" fill="#F90"/><g clip-path="url(#a)" fill-rule="evenodd" clip-rule="evenodd" fill="#000"><path d="M60.678 9.294a.584.584 0 0 1 .8-.215l34.229 19.824c.28.162.376.521.215.803a.584.584 0 0 1-.8.215l-34.23-19.824a.589.589 0 0 1-.214-.803Z"/><path d="M74.101 1.125a8.399 8.399 0 0 1 8.399 0l27.3 15.604a8.395 8.395 0 0 1 4.2 7.267v31.208a8.4 8.4 0 0 1-4.2 7.267l-.002.002L82.5 78.074a8.399 8.399 0 0 1-8.4 0L46.802 62.473l-.002-.002a8.4 8.4 0 0 1-4.2-7.267V23.996a8.402 8.402 0 0 1 4.2-7.267l.002-.002L74.1 1.126l.001-.001ZM78.3 1.2a7.199 7.199 0 0 0-3.6.965l-.002.001L47.4 17.768h-.001a7.2 7.2 0 0 0-3.6 6.23v31.205a7.204 7.204 0 0 0 3.6 6.228l27.3 15.604a7.198 7.198 0 0 0 7.2 0l.003-.001L109.2 61.432l.001-.001a7.199 7.199 0 0 0 3.599-6.228V23.997a7.199 7.199 0 0 0-3.599-6.228h-.001L81.902 2.165l-.002-.001a7.199 7.199 0 0 0-3.6-.965Z"/><path d="M43.88 20.093a.596.596 0 0 1 .809-.214l33.31 19.058 33.312-19.058a.596.596 0 0 1 .809.213.582.582 0 0 1-.216.8l-33.608 19.23a.598.598 0 0 1-.593 0l-33.607-19.23a.582.582 0 0 1-.216-.8Z"/><path d="M78 39c.331 0 .6.263.6.587v38.426a.593.593 0 0 1-.6.587.593.593 0 0 1-.6-.587V39.586c0-.323.268-.586.6-.586Z"/></g><defs><clipPath id="a"><path fill="#fff" transform="translate(42.6)" d="M0 0h71.4v79.2H0z"/></clipPath></defs></svg>
